Newaita-dark/emblems/48/emblem-pause.svg

<svg height="48" viewBox="0 0 48 48" width="48" xmlns="http://www.w3.org/2000/svg"><g fill="#fafafa"><path d="m148.152519-147.506445c11.707215 0 21.164645 9.499093 21.164645 21.164645v338.675992c0 11.707215-9.45743 21.164645-21.164645 21.164645-11.665553 0-21.164646-9.45743-21.164646-21.164645v-338.675992c0-11.665552 9.499093-21.164645 21.164646-21.164645zm0 0" stroke="#424242" stroke-linecap="round" stroke-linejoin="round" stroke-width="82" transform="matrix(.093759 0 0 .093759 0 20.158175)"/><path d="m359.840637-147.506445c11.665553 0 21.164645 9.499093 21.164645 21.164645v338.675992c0 11.707215-9.499092 21.164645-21.164645 21.164645-11.707215 0-21.164646-9.45743-21.164646-21.164645v-338.675992c0-11.665552 9.457431-21.164645 21.164646-21.164645zm0 0" stroke="#424242" stroke-linecap="round" stroke-linejoin="round" stroke-width="82" transform="matrix(.093759 0 0 .093759 0 20.158175)"/><path d="m13.890625 6.328125c1.097656 0 1.984375.890625 1.984375 1.984375v31.753906c0 1.097656-.886719 1.984375-1.984375 1.984375-1.09375 0-1.984375-.886719-1.984375-1.984375v-31.753906c0-1.09375.890625-1.984375 1.984375-1.984375zm0 0"/><path d="m33.738281 6.328125c1.09375 0 1.984375.890625 1.984375 1.984375v31.753906c0 1.097656-.890625 1.984375-1.984375 1.984375-1.097656 0-1.984375-.886719-1.984375-1.984375v-31.753906c0-1.09375.886719-1.984375 1.984375-1.984375zm0 0"/></g></svg>

<?xml version="1.0" encoding="UTF-8"?>
<svg xmlns="http://www.w3.org/2000/svg" xmlns:xlink="http://www.w3.org/1999/xlink" width="48px" height="48px" viewBox="0 0 48 48" version="1.1">
<g id="surface1">
<path style="fill-rule:nonzero;fill:rgb(98.039216%,98.039216%,98.039216%);fill-opacity:1;stroke-width:82;stroke-linecap:round;stroke-linejoin:round;stroke:rgb(25.882354%,25.882354%,25.882354%);stroke-opacity:1;stroke-miterlimit:4;" d="M 148.152519 -147.506445 C 159.859734 -147.506445 169.317164 -138.007352 169.317164 -126.3418 L 169.317164 212.334192 C 169.317164 224.041407 159.859734 233.498837 148.152519 233.498837 C 136.486966 233.498837 126.987873 224.041407 126.987873 212.334192 L 126.987873 -126.3418 C 126.987873 -138.007352 136.486966 -147.506445 148.152519 -147.506445 Z M 148.152519 -147.506445 " transform="matrix(0.093759,0,0,0.093759,0,20.158175)"/>
<path style="fill-rule:nonzero;fill:rgb(98.039216%,98.039216%,98.039216%);fill-opacity:1;stroke-width:82;stroke-linecap:round;stroke-linejoin:round;stroke:rgb(25.882354%,25.882354%,25.882354%);stroke-opacity:1;stroke-miterlimit:4;" d="M 359.840637 -147.506445 C 371.50619 -147.506445 381.005282 -138.007352 381.005282 -126.3418 L 381.005282 212.334192 C 381.005282 224.041407 371.50619 233.498837 359.840637 233.498837 C 348.133422 233.498837 338.675991 224.041407 338.675991 212.334192 L 338.675991 -126.3418 C 338.675991 -138.007352 348.133422 -147.506445 359.840637 -147.506445 Z M 359.840637 -147.506445 " transform="matrix(0.093759,0,0,0.093759,0,20.158175)"/>
<path style=" stroke:none;fill-rule:nonzero;fill:rgb(98.039216%,98.039216%,98.039216%);fill-opacity:1;" d="M 13.890625 6.328125 C 14.988281 6.328125 15.875 7.21875 15.875 8.3125 L 15.875 40.066406 C 15.875 41.164062 14.988281 42.050781 13.890625 42.050781 C 12.796875 42.050781 11.90625 41.164062 11.90625 40.066406 L 11.90625 8.3125 C 11.90625 7.21875 12.796875 6.328125 13.890625 6.328125 Z M 13.890625 6.328125 "/>
<path style=" stroke:none;fill-rule:nonzero;fill:rgb(98.039216%,98.039216%,98.039216%);fill-opacity:1;" d="M 33.738281 6.328125 C 34.832031 6.328125 35.722656 7.21875 35.722656 8.3125 L 35.722656 40.066406 C 35.722656 41.164062 34.832031 42.050781 33.738281 42.050781 C 32.640625 42.050781 31.753906 41.164062 31.753906 40.066406 L 31.753906 8.3125 C 31.753906 7.21875 32.640625 6.328125 33.738281 6.328125 Z M 33.738281 6.328125 "/>
</g>
</svg>
